X:0903
T:Ligrum cus,
C:Irish.
M:6/8
L:1/8
Q:3/8=120
I: || ||
Z:Jack Campin * www.campin.me.uk * 2009
K:D
ABA A2G|F2E D3 |ABA AFA|B3 d3|dcB ABG|FGE D3 |def ecA|B3 d3:|
d2e fgf|e2d c2A|d2e fgf|e3 A3|d2e fgf|e2d cBc|dcB AFA|B3 d3:|
<end>
<start>
